static/assets/img/icons/theme/files/upload-folder.svg

<svg height="24" viewBox="0 0 24 24" width="24" xmlns="http://www.w3.org/2000/svg"><g fill="none" fill-rule="evenodd"><path d="m0 0h24v24h-24z" opacity="0"/><g fill="#000"><path d="m3.5 21h17c.8284271 0 1.5-.6715729 1.5-1.5v-11c0-.82842712-.6715729-1.5-1.5-1.5h-10.5l-2.56066017-2.56066017c-.28130457-.28130457-.66283544-.43933983-1.06066017-.43933983h-2.87867966c-.82842712 0-1.5.67157288-1.5 1.5v14c0 .8284271.67157288 1.5 1.5 1.5z" opacity=".3"/><path d="m8.54301601 14.4923287h2.12308399v2.0076713c0 .2761424.2238576.5.5.5h1.16782c.2761424 0 .5-.2238576.5-.5v-2.0076713h2.1230839c.2761424 0 .5-.2238576.5-.5 0-.1241988-.0462239-.2439521-.1296708-.335941l-3.206994-3.5352732c-.1855351-.20452711-.501743-.21992319-.7062701-.0343881-.0120137.0108981-.02349.0223744-.0343881.0343881l-3.206994 3.5352732c-.18553509.2045271-.17013901.520735.03438811.7062701.09198886.0834469.2117422.1296709.335941.1296709z"/></g></g></svg>

<svg width="24px" height="24px" viewBox="0 0 24 24" version="1.1" xmlns="http://www.w3.org/2000/svg" xmlns:xlink="http://www.w3.org/1999/xlink">
    <title>Icon For Upload-folder</title>
    <g stroke="none" stroke-width="1" fill="none" fill-rule="evenodd">
        <rect opacity="0" x="0" y="0" width="24" height="24"></rect>
        <path d="M3.5,21 L20.5,21 C21.3284271,21 22,20.3284271 22,19.5 L22,8.5 C22,7.67157288 21.3284271,7 20.5,7 L10,7 L7.43933983,4.43933983 C7.15803526,4.15803526 6.77650439,4 6.37867966,4 L3.5,4 C2.67157288,4 2,4.67157288 2,5.5 L2,19.5 C2,20.3284271 2.67157288,21 3.5,21 Z" fill="#000000" opacity="0.3"></path>
        <path d="M8.54301601,14.4923287 L10.6661,14.4923287 L10.6661,16.5 C10.6661,16.7761424 10.8899576,17 11.1661,17 L12.33392,17 C12.6100624,17 12.83392,16.7761424 12.83392,16.5 L12.83392,14.4923287 L14.9570039,14.4923287 C15.2331463,14.4923287 15.4570039,14.2684711 15.4570039,13.9923287 C15.4570039,13.8681299 15.41078,13.7483766 15.3273331,13.6563877 L12.1203391,10.1211145 C11.934804,9.91658739 11.6185961,9.90119131 11.414069,10.0867264 C11.4020553,10.0976245 11.390579,10.1091008 11.3796809,10.1211145 L8.1726869,13.6563877 C7.98715181,13.8609148 8.00254789,14.1771227 8.20707501,14.3626578 C8.29906387,14.4461047 8.41881721,14.4923287 8.54301601,14.4923287 Z" fill="#000000"></path>
    </g>
</svg>
